X: 1
T: Horse In The Houseboat, The
M: 4/4
L: 1/8
R: reel
K: Gmaj
A2 gA fAeA |  A2 eA dcBc | A2 gA fAeA | GABc dcBc |
 A2 gA fAeA |  A2 eA dcBG | DEGA cdeg | aged cA A2 :| 
aged  cA A2 | GAEA GAEA | aged cA A2 | bagb a2 ag |
aged  cA A2 | GAEA GAEA | DEGA cdeg | aged cA A2 :|
